packages/components/icon/src/assets/icons/network.svg

<svg xmlns="http://www.w3.org/2000/svg" fill="none" viewBox="0 0 24 24"><path fill="currentColor" fill-rule="evenodd" d="M15.9081 12.1116c-.4918 1.2582-1.3053 2.2815-2.4406 3.0697-1.1354.7882-2.3972 1.1823-3.78568 1.1823-1.21488 0-2.33212-.3001-3.35176-.9003-1.01963-.6002-1.82954-1.4101-2.42975-2.4297C3.3001 12.0139 3 10.8967 3 9.68182c0-1.21488.3001-2.33212.90031-3.35176.60021-1.01963 1.41012-1.82954 2.42975-2.42975C7.3497 3.3001 8.46694 3 9.68182 3c1.22938 0 2.35748.31095 3.38428.93285 1.0269.62191 1.8368 1.45351 2.4298 2.49484-.3038-.05786-.6509-.08678-1.0414-.08678-.5785 0-1.1931.07231-1.844.21694-.3905-.36157-.8388-.64721-1.345-.85692-.5062-.20971-1.0341-.31457-1.58368-.31457-.781 0-1.50052.19163-2.15858.5749-.65806.38327-1.17871.90392-1.56198 1.56198s-.5749 1.37758-.5749 2.15858c0 .78098.19163 1.50048.5749 2.15858.38327.6581.90392 1.1787 1.56198 1.562.65806.3832 1.37758.5749 2.15858.5749.75208 0 1.45348-.188 2.10438-.5641.6508-.376 1.1714-.875 1.5619-1.4969.3616-.1446.7304-.2169 1.1064-.2169.5062 0 .9907.1374 1.4536.4122zm-1.4536-4.33887c1.2149 0 2.3322.3001 3.3518.90031 1.0196.60021 1.8295 1.41016 2.4298 2.42976.6002 1.0196.9003 2.1369.9003 3.3517 0 1.2149-.3001 2.3322-.9003 3.3518-.6003 1.0196-1.4102 1.8295-2.4298 2.4298-1.0196.6002-2.1369.9003-3.3518.9003-1.2438 0-2.3827-.3074-3.4168-.922-1.0341-.6147-1.84038-1.4427-2.4189-2.484.34711.0434.70145.0651 1.06302.0651.63638 0 1.24378-.0651 1.82228-.1953.3905.3616.8389.6436 1.3451.8461s1.0413.3037 1.6053.3037c.781 0 1.5006-.1916 2.1586-.5749.6581-.3833 1.1787-.9039 1.562-1.562.3833-.658.5749-1.3776.5749-2.1586 0-.781-.1916-1.5005-.5749-2.1585-.3833-.6581-.9039-1.1787-1.562-1.562-.658-.3833-1.3776-.5749-2.1586-.5749-.7665 0-1.4752.1844-2.126.5532-.6508.3688-1.1715.8714-1.562 1.5077-.3471.1591-.7086.2387-1.08468.2387-.52067 0-1.0124-.1374-1.47521-.4122.49174-1.2727 1.30526-2.30321 2.44059-3.09144 1.1353-.78823 2.4044-1.18233 3.8073-1.18233z" clip-rule="evenodd"/></svg>

<svg width="24" height="24" viewBox="0 0 24 24" fill="none" xmlns="http://www.w3.org/2000/svg">
<path fill-rule="evenodd" clip-rule="evenodd" d="M15.9081 12.1116C15.4163 13.3698 14.6028 14.3931 13.4675 15.1813C12.3321 15.9695 11.0703 16.3636 9.68182 16.3636C8.46694 16.3636 7.3497 16.0635 6.33006 15.4633C5.31043 14.8631 4.50052 14.0532 3.90031 13.0336C3.3001 12.0139 3 10.8967 3 9.68182C3 8.46694 3.3001 7.3497 3.90031 6.33006C4.50052 5.31043 5.31043 4.50052 6.33006 3.90031C7.3497 3.3001 8.46694 3 9.68182 3C10.9112 3 12.0393 3.31095 13.0661 3.93285C14.093 4.55476 14.9029 5.38636 15.4959 6.42769C15.1921 6.36983 14.845 6.34091 14.4545 6.34091C13.876 6.34091 13.2614 6.41322 12.6105 6.55785C12.22 6.19628 11.7717 5.91064 11.2655 5.70093C10.7593 5.49122 10.2314 5.38636 9.68182 5.38636C8.90082 5.38636 8.1813 5.57799 7.52324 5.96126C6.86518 6.34453 6.34453 6.86518 5.96126 7.52324C5.57799 8.1813 5.38636 8.90082 5.38636 9.68182C5.38636 10.4628 5.57799 11.1823 5.96126 11.8404C6.34453 12.4985 6.86518 13.0191 7.52324 13.4024C8.1813 13.7856 8.90082 13.9773 9.68182 13.9773C10.4339 13.9773 11.1353 13.7893 11.7862 13.4132C12.437 13.0372 12.9576 12.5382 13.3481 11.9163C13.7097 11.7717 14.0785 11.6994 14.4545 11.6994C14.9607 11.6994 15.4452 11.8368 15.9081 12.1116ZM14.4545 7.77273C15.6694 7.77273 16.7867 8.07283 17.8063 8.67304C18.8259 9.27325 19.6358 10.0832 20.2361 11.1028C20.8363 12.1224 21.1364 13.2397 21.1364 14.4545C21.1364 15.6694 20.8363 16.7867 20.2361 17.8063C19.6358 18.8259 18.8259 19.6358 17.8063 20.2361C16.7867 20.8363 15.6694 21.1364 14.4545 21.1364C13.2107 21.1364 12.0718 20.829 11.0377 20.2144C10.0036 19.5997 9.19732 18.7717 8.6188 17.7304C8.96591 17.7738 9.32025 17.7955 9.68182 17.7955C10.3182 17.7955 10.9256 17.7304 11.5041 17.6002C11.8946 17.9618 12.343 18.2438 12.8492 18.4463C13.3554 18.6488 13.8905 18.75 14.4545 18.75C15.2355 18.75 15.9551 18.5584 16.6131 18.1751C17.2712 17.7918 17.7918 17.2712 18.1751 16.6131C18.5584 15.9551 18.75 15.2355 18.75 14.4545C18.75 13.6735 18.5584 12.954 18.1751 12.296C17.7918 11.6379 17.2712 11.1173 16.6131 10.734C15.9551 10.3507 15.2355 10.1591 14.4545 10.1591C13.688 10.1591 12.9793 10.3435 12.3285 10.7123C11.6777 11.0811 11.157 11.5837 10.7665 12.22C10.4194 12.3791 10.0579 12.4587 9.68182 12.4587C9.16115 12.4587 8.66942 12.3213 8.20661 12.0465C8.69835 10.7738 9.51187 9.74329 10.6472 8.95506C11.7825 8.16683 13.0516 7.77273 14.4545 7.77273Z" fill="currentColor"/>
</svg>
